icon/lg/aws-cloudtrail.svg

<?xml version="1.0" encoding="UTF-8"?>
<svg viewBox="0 0 256 256" version="1.1" xmlns="http://www.w3.org/2000/svg" xmlns:xlink="http://www.w3.org/1999/xlink" preserveAspectRatio="xMidYMid" height="1em" width="1em">
  <defs>
    <linearGradient x1="0%" y1="100%" x2="100%" y2="0%" id="linearGradient-1">
      <stop stop-color="#B0084D" offset="0%"/>
      <stop stop-color="#FF4F8B" offset="100%"/>
    </linearGradient>
  </defs>
  <g>
    <rect fill="url(#linearGradient-1)" x="0" y="0" width="256" height="256"/>
    <path d="M80,169.587366 L92.8,169.587366 L92.8,163.18105 L80,163.18105 L80,169.587366 Z M191.9072,122.122966 C191.1872,112.404583 186.4352,105.248727 178.8864,102.721435 C172.8096,100.693836 166.1152,102.125648 161.0176,106.280144 C157.9264,100.184534 153.28,94.2138467 149.4464,90.4309168 C135.6992,76.8623376 120.5376,73.4029267 104.3712,80.145575 C89.9392,86.151497 76.8,105.879749 76.8,121.539991 L76.8,122.148591 C68.1376,125.076278 61.1488,131.43775 57.8368,139.548147 L63.7632,141.969735 C67.984,131.633143 77.8624,128.391547 80.7904,127.645211 C82.208,127.283254 83.2,126.005194 83.2,124.54135 L83.2,121.539991 C83.2,108.596028 94.9024,91.0235008 106.832,86.0586054 C120.576,80.3281552 133.0496,83.236623 144.9536,94.9922141 C150.016,99.9859382 154.9664,107.394844 156.992,113.016386 C157.3888,114.124679 158.3616,114.922266 159.5264,115.098439 C160.6784,115.274613 161.8464,114.797342 162.5568,113.855614 C166.0928,109.153377 171.8272,107.116169 176.8608,108.797827 C182.4128,110.658862 185.6,116.469391 185.6,124.743149 C185.6,126.309494 186.7328,127.645211 188.2752,127.901463 C190.6208,128.292249 211.2,132.325025 211.2,153.571575 C211.2,175.577273 189.6992,175.987277 188.8,175.993683 L115.2,175.993683 L115.2,182.4 L188.8064,182.4 C198.7648,182.380781 217.6,176.333218 217.6,153.571575 C217.6,133.708789 202.4928,124.765571 191.9072,122.122966 L191.9072,122.122966 Z M99.2,169.587366 L144,169.587366 L144,163.18105 L99.2,163.18105 L99.2,169.587366 Z M86.4,182.4 L105.6,182.4 L105.6,175.993683 L86.4,175.993683 L86.4,182.4 Z M38.4,182.4 L48,182.4 L48,175.993683 L38.4,175.993683 L38.4,182.4 Z M48,156.774733 L76.8,156.774733 L76.8,150.368416 L48,150.368416 L48,156.774733 Z M41.6,169.587366 L73.6,169.587366 L73.6,163.18105 L41.6,163.18105 L41.6,169.587366 Z M86.4,156.774733 L108.8,156.774733 L108.8,150.368416 L86.4,150.368416 L86.4,156.774733 Z M54.4,182.4 L80,182.4 L80,175.993683 L54.4,175.993683 L54.4,182.4 Z" fill="#FFFFFF"/>
  </g>
</svg>

<svg width="256" height="256" xmlns="http://www.w3.org/2000/svg" preserveAspectRatio="xMidYMid"><defs><linearGradient x1="0%" y1="100%" x2="100%" y2="0%" id="a"><stop stop-color="#B0084D" offset="0%"/><stop stop-color="#FF4F8B" offset="100%"/></linearGradient></defs><path fill="url(#a)" d="M0 0h256v256H0z"/><path d="M80 169.587h12.8v-6.406H80v6.406Zm111.907-47.464c-.72-9.718-5.472-16.874-13.02-19.402-6.077-2.027-12.772-.595-17.87 3.56-3.09-6.096-7.737-12.067-11.57-15.85-13.748-13.569-28.91-17.028-45.076-10.285C89.94 86.15 76.8 105.88 76.8 121.54v.609c-8.662 2.927-15.651 9.289-18.963 17.4l5.926 2.42c4.221-10.336 14.1-13.577 17.027-14.324a3.203 3.203 0 0 0 2.41-3.104v-3.001c0-12.944 11.702-30.516 23.632-35.481 13.744-5.73 26.218-2.822 38.122 8.933 5.062 4.994 10.012 12.403 12.038 18.024a3.196 3.196 0 0 0 5.565.84c3.536-4.703 9.27-6.74 14.304-5.058 5.552 1.86 8.739 7.671 8.739 15.945a3.201 3.201 0 0 0 2.675 3.158c2.346.391 22.925 4.424 22.925 25.67 0 22.006-21.5 22.416-22.4 22.423h-73.6v6.406h73.606c9.959-.02 28.794-6.067 28.794-28.828 0-19.863-15.107-28.806-25.693-31.449ZM99.2 169.587H144v-6.406H99.2v6.406ZM86.4 182.4h19.2v-6.406H86.4v6.406Zm-48 0H48v-6.406h-9.6v6.406Zm9.6-25.625h28.8v-6.407H48v6.407Zm-6.4 12.812h32v-6.406h-32v6.406Zm44.8-12.812h22.4v-6.407H86.4v6.407Zm-32 25.625H80v-6.406H54.4v6.406Z" fill="#FFF"/></svg>
